X: 2037
T: Tarpaulin Cove Reel
R: reel
C: Rick Gagne
N: 1988 on tenor banjo
Q: 1/4=175
M: 4/4
K: D
AF |"D"DEFG "A"A2ce|"Bm"dA~A2 BAFA|"G"BAGB "D"AFDF|"A"EABA c2BA| 
"D"DEFG "A"A2ce | "Bm"dA~A2 BAFA | "G"gfed "Em"BddB | "D"Addf "A"e2 :|
ef |: "Em"gfed "G"BdAG | "D"FD~D2 FAd2 | "G"BdAB "A"dABA | "D"FD~D2 FAd2 | 
"Em"gfed "G"BdAG | "D"FD~D2 FA~A2 | "Em"Be~e2 "A"ce~e2 |1 "D"dfgf "A"a2af :|\
[2 "D"dfgf "A"a2 ||
